img/robot.svg

<svg width="385" height="466" viewBox="0 0 385 466" fill="none" xmlns="http://www.w3.org/2000/svg">
<rect width="26.0645" height="62.6083" rx="11.757" transform="matrix(-0.808311 0.588756 0.588756 0.808311 265.806 132.746)" fill="#484266"/>
<rect width="28.6609" height="54.1874" rx="14.3304" transform="matrix(-0.781487 0.623921 0.623921 0.781487 252.498 254.48)" fill="#332E4D"/>
<rect width="28.6609" height="52.836" rx="14.3304" transform="matrix(-0.5 -0.866025 -0.866025 0.5 156.958 274.836)" fill="#332E4D"/>
<rect width="26.0645" height="62.6083" rx="11.757" transform="matrix(-0.700184 -0.713962 -0.713962 0.700184 142.511 155.25)" fill="#484266"/>
<path d="M120.594 147.009C122.775 148.879 105.013 168.563 95.6638 179.34L91.3789 168.823L116.309 144.672C116.828 144.672 118.413 145.139 120.594 147.009Z" fill="#332E4D"/>
<ellipse cx="145.996" cy="263.399" rx="4.11648" ry="10.1279" transform="rotate(-30.1923 145.996 263.399)" fill="#201C33"/>
<circle r="8.18021" transform="matrix(-1 0 0 1 152.697 259.344)" fill="#484266"/>
<ellipse cx="245.149" cy="267.372" rx="7.27192" ry="12.3317" transform="rotate(-120 245.149 267.372)" fill="#201C33"/>
<circle r="8.18021" transform="matrix(-1 0 0 1 240.731 264.797)" fill="#484266"/>
<path d="M247.83 238.922C250.009 227.484 241.24 216.887 229.596 216.887H159.227C146.546 216.887 137.357 228.976 140.751 241.194C145.028 256.59 156.948 268.919 172.667 271.792C179.624 273.064 186.975 274.063 193.208 274.148C200.057 274.242 208.168 273.269 215.82 271.965C232.454 269.129 244.673 255.498 247.83 238.922Z" fill="#D3CFE5"/>
<ellipse cx="190.71" cy="219.071" rx="34.6685" ry="9.34881" fill="#201C33"/>
<path d="M263.554 136.488H124.101V163.825C124.101 193.045 147.788 216.732 177.008 216.732H210.648C239.867 216.732 263.554 193.045 263.554 163.826V136.488Z" fill="#D3CFE5"/>
<path d="M188.374 186.742C166.525 186.742 152.407 202.453 147.863 216.347C147.863 216.347 143.578 217.126 191.685 217.126H234.729C228.496 204.271 212.915 186.742 188.374 186.742Z" fill="#332E4D"/>
<path d="M162.876 196.391H216.243M170.17 191.805H208.181M157.116 202.124H222.771M153.277 207.474H228.53M150.589 212.06H230.833" stroke="#5F5980" stroke-width="1.46963"/>
<rect width="32.9684" height="102.837" rx="16.4842" transform="matrix(-0.940547 0.339664 0.339664 0.940547 67.5171 80.5469)" fill="#484266"/>
<ellipse cx="265.903" cy="298.326" rx="9.23179" ry="15.3039" transform="rotate(-101.851 265.903 298.326)" fill="#201C33"/>
<path d="M277.929 298.685C277.117 292.898 276.285 281.351 279.461 281.464L290.632 291.877C301.272 291.069 331.859 331.583 345.822 351.941C362.032 375.819 360.623 393.467 357.892 399.307L361.838 406.557C365.854 415.69 359.048 429.772 355.143 435.672L339.925 410.133L308.015 415.339L315.16 442.196L291.73 383.264C287.745 380.126 272.534 353.506 265.427 340.589C260.77 339.138 246.202 313.072 239.501 300.22L263.721 296.268C268.027 295.565 274.987 297.587 277.929 298.685Z" fill="#D3CFE5"/>
<path d="M245.796 300.094L270.726 340.216M270.726 340.216H265.273M270.726 340.216C272.681 337.268 275.469 333.811 278.906 330.491M323.313 322.298C305.943 311.5 289.399 320.357 278.906 330.491M278.127 298.926L278.906 330.491M357.982 399.425L339.674 410.332" stroke="#958FB2" stroke-width="1.46963"/>
<path d="M116.883 279.923C124.905 279.968 131.391 282.954 131.37 286.593C131.35 290.232 122.772 297.025 114.751 296.98C106.729 296.935 102.302 290.069 102.322 286.43C102.343 282.791 108.862 279.878 116.883 279.923Z" fill="#201C33"/>
<circle r="13.6337" transform="matrix(-1 0 0 1 119.815 297.368)" fill="#484266"/>
<path d="M129.374 292.734C126.739 288.966 122.035 281.168 124.302 280.114L135.85 283.427C143.02 279.064 178.922 296.55 195.976 305.838C215.862 316.792 221.173 329.668 221.342 334.736L226.696 338.41C232.771 343.38 233.025 355.681 232.393 361.211L212.61 348.738L192.098 363.776L206.692 380.054L169.235 347.102C165.32 346.324 145.157 333.091 135.565 326.572C131.782 327.217 112.267 314.142 102.982 307.524L118.551 296.11C121.319 294.08 126.92 293.014 129.374 292.734Z" fill="#D3CFE5"/>
<path d="M307.731 415.938L340.062 410.484L355.254 435.804C356.163 442.556 353.93 457.462 337.725 463.071C321.521 468.681 318.249 460.734 318.638 456.06C309.913 443.906 307.731 424.248 307.731 415.938Z" fill="#403366"/>
<path d="M191.404 363.938L211.821 348.176L231.743 360.119C234.875 364.468 238.848 375.64 229.68 385.536C220.513 395.432 215.298 391.129 213.837 387.741C203.279 382.539 194.483 369.705 191.404 363.938Z" fill="#403366"/>
<path d="M0.000106812 22.5088L16.7501 15.8867L38.1744 66.9156L49.0813 73.1482L71.2848 139.758L86.4766 150.276L104.785 204.811C86.7103 221.95 60.1181 225.716 49.0813 225.456L30.3837 172.869L34.6686 155.729L10.907 88.34L15.1919 77.8226L0.000106812 22.5088Z" fill="#403366"/>
<rect width="14.8023" height="45.5949" rx="5.87852" transform="matrix(-0.952827 0.303515 0.303515 0.952827 61.7144 87.9492)" fill="#332E4D"/>
<path d="M77.9065 157.285L95.4355 207.535M68.9473 161.96L85.6972 211.041M60.3775 165.076L76.3484 213.768M51.0287 167.413L66.9996 217.663M41.2904 170.529L58.0403 220.39M70.1159 140.535C65.4415 144.301 52.2752 152.143 37.0055 153.39M47.1334 74.3146C41.6799 78.3398 27.2671 86.3122 13.2439 86.0006M37.0055 68.082C34.2788 70.5491 26.4881 75.5611 17.1393 75.8727M49.4706 136.64L35.4474 93.0122L25.3195 96.518L39.3427 140.535L49.4706 136.64Z" stroke="#5F5980" stroke-width="1.46963"/>
<circle r="35.058" transform="matrix(-1 0 0 1 316.691 188.839)" fill="#B2ADCC"/>
<circle r="21.0348" transform="matrix(-1 0 0 1 316.69 188.84)" fill="#332E4D"/>
<circle r="14.0232" transform="matrix(-1 0 0 1 316.691 188.84)" fill="#201C33"/>
<circle r="63.5825" transform="matrix(-1 0 0 1 319.417 188.451)" stroke="#E6004C" stroke-width="2.93926"/>
<circle r="48.7802" transform="matrix(-1 0 0 1 319.417 188.449)" stroke="#E6004C" stroke-width="2.93926"/>
<rect width="60.7673" height="10.1279" rx="5.06394" transform="matrix(-1 0 0 1 216.81 113.117)" fill="#484266"/>
<rect width="148.802" height="18.6976" rx="9.34881" transform="matrix(-1 0 0 1 269.007 123.246)" fill="#D3CFE5"/>
<path d="M203.222 31.3165C253.472 42.983 249.706 96.888 243.733 117.014H131.548C131.548 117.014 125.244 82.3038 135.053 64.0373C149.024 38.0221 174.457 24.6383 203.222 31.3165Z" fill="#D3CFE5"/>
<rect x="155.034" y="80.3984" width="63.1045" height="10.9069" rx="1.46963" fill="url(#paint0_linear)"/>
<rect x="150.589" y="78.0625" width="71.6742" height="2.3372" rx="1.1686" fill="#332E4D"/>
<path d="M208.814 33.1457L225.509 29.9699C211.782 44.2158 201.487 61.5469 195.459 78.0613H172.18C172.922 72.4355 174.035 63.9061 174.962 60.0043L163.833 62.1821C167.264 40.1326 176.817 19.535 190.451 1.11507L190.172 0.933594H230.053C222.355 10.0074 215.214 17.3573 208.814 33.1457Z" fill="#403366"/>
<path d="M132.839 17.6199C134.803 17.2085 136.78 18.2596 137.537 20.1176L156.253 66.0454L137.751 61.3199L129.626 22.5366C129.155 20.2915 130.594 18.0902 132.839 17.6199Z" fill="#D3CFE5"/>
<path d="M249.875 27.3061C247.956 26.7223 245.893 27.5941 244.975 29.3777L222.262 73.4661L241.11 70.3988L252.64 32.4883C253.308 30.2937 252.07 27.9736 249.875 27.3061Z" fill="#D3CFE5"/>
<path d="M136.565 326.586C147.472 315.419 176.142 296.825 203.565 311.784C208.759 314.51 219.536 323.158 221.094 335.935L212.134 348.4M136.565 326.586L110.077 303.603M136.565 326.586L129.553 293.086" stroke="#958FB2" stroke-width="1.46963"/>
<path d="M125.039 140.777H188.533H262.934C262.934 140.777 246.963 158.306 234.109 169.213C221.254 180.12 211.516 190.248 188.533 192.975C171.004 192.975 160.097 180.899 148.022 169.213C135.946 157.527 125.039 140.777 125.039 140.777Z" fill="#D3CFE5"/>
<path d="M188.533 192.975C188.533 172.59 188.533 140.777 188.533 140.777M188.533 192.975C211.516 190.248 221.254 180.12 234.109 169.213C246.963 158.306 262.934 140.777 262.934 140.777H188.533M188.533 192.975C171.004 192.975 160.097 180.899 148.022 169.213C135.946 157.527 125.039 140.777 125.039 140.777H188.533" stroke="#797399" stroke-width="1.46963"/>
<defs>
<linearGradient id="paint0_linear" x1="186.586" y1="80.3984" x2="186.586" y2="91.3054" gradientUnits="userSpaceOnUse">
<stop stop-color="#E6004C"/>
<stop offset="1" stop-color="#B5043F"/>
</linearGradient>
</defs>
</svg>

<svg width="385" height="466" viewBox="0 0 385 466" fill="none" xmlns="http://www.w3.org/2000/svg"><rect width="26.064" height="62.608" rx="11.757" transform="scale(-1 1) rotate(36.069 -336.762 -341.827)" fill="#484266"/><rect width="28.661" height="54.187" rx="14.33" transform="scale(-1 1) rotate(38.603 -489.559 -233.24)" fill="#332E4D"/><rect width="28.661" height="52.836" rx="14.33" transform="scale(-1 1) rotate(-60 159.536 273.348)" fill="#332E4D"/><rect width="26.064" height="62.608" rx="11.757" transform="scale(-1 1) rotate(-45.558 113.596 247.308)" fill="#484266"/><path d="M120.594 147.009c2.181 1.87-15.581 21.554-24.93 32.331l-4.285-10.517 24.93-24.151c.519 0 2.104.467 4.285 2.337z" fill="#332E4D"/><ellipse cx="145.996" cy="263.399" rx="4.116" ry="10.128" transform="rotate(-30.192 145.996 263.399)" fill="#201C33"/><circle r="8.18" transform="matrix(-1 0 0 1 152.697 259.344)" fill="#484266"/><ellipse cx="245.149" cy="267.372" rx="7.272" ry="12.332" transform="rotate(-120 245.149 267.372)" fill="#201C33"/><circle r="8.18" transform="matrix(-1 0 0 1 240.731 264.797)" fill="#484266"/><path d="M247.83 238.922c2.179-11.438-6.59-22.035-18.234-22.035h-70.369c-12.681 0-21.87 12.089-18.476 24.307 4.277 15.396 16.197 27.725 31.916 30.598 6.957 1.272 14.308 2.271 20.541 2.356 6.849.094 14.96-.879 22.612-2.183 16.634-2.836 28.853-16.467 32.01-33.043z" fill="#D3CFE5"/><ellipse cx="190.71" cy="219.071" rx="34.669" ry="9.349" fill="#201C33"/><path d="M263.554 136.488H124.101v27.337c0 29.22 23.687 52.907 52.907 52.907h33.64c29.219 0 52.906-23.687 52.906-52.906v-27.338z" fill="#D3CFE5"/><path d="M188.374 186.742c-21.849 0-35.967 15.711-40.511 29.605 0 0-4.285.779 43.822.779h43.044c-6.233-12.855-21.814-30.384-46.355-30.384z" fill="#332E4D"/><path d="M162.876 196.391h53.367m-46.073-4.586h38.011m-51.065 10.319h65.655m-69.494 5.35h75.253m-77.941 4.586h80.244" stroke="#5F5980" stroke-width="1.47"/><rect width="32.968" height="102.837" rx="16.484" transform="scale(-1 1) rotate(19.856 -263.846 -152.594)" fill="#484266"/><ellipse cx="265.903" cy="298.326" rx="9.232" ry="15.304" transform="rotate(-101.851 265.903 298.326)" fill="#201C33"/><path d="M277.929 298.685c-.812-5.787-1.644-17.334 1.532-17.221l11.171 10.413c10.64-.808 41.227 39.706 55.19 60.064 16.21 23.878 14.801 41.526 12.07 47.366l3.946 7.25c4.016 9.133-2.79 23.215-6.695 29.115l-15.218-25.539-31.91 5.206 7.145 26.857-23.43-58.932c-3.985-3.138-19.196-29.758-26.303-42.675-4.657-1.451-19.225-27.517-25.926-40.369l24.22-3.952c4.306-.703 11.266 1.319 14.208 2.417z" fill="#D3CFE5"/><path d="M245.796 300.094l24.93 40.122m0 0h-5.453m5.453 0c1.955-2.948 4.743-6.405 8.18-9.725m44.407-8.193c-17.37-10.798-33.914-1.941-44.407 8.193m-.779-31.565l.779 31.565m79.076 68.934l-18.308 10.907" stroke="#958FB2" stroke-width="1.47"/><path d="M116.883 279.923c8.022.045 14.508 3.031 14.487 6.67-.02 3.639-8.598 10.432-16.619 10.387-8.022-.045-12.449-6.911-12.429-10.55.021-3.639 6.54-6.552 14.561-6.507z" fill="#201C33"/><circle r="13.634" transform="matrix(-1 0 0 1 119.815 297.368)" fill="#484266"/><path d="M129.374 292.734c-2.635-3.768-7.339-11.566-5.072-12.62l11.548 3.313c7.17-4.363 43.072 13.123 60.126 22.411 19.886 10.954 25.197 23.83 25.366 28.898l5.354 3.674c6.075 4.97 6.329 17.271 5.697 22.801l-19.783-12.473-20.512 15.038 14.594 16.278-37.457-32.952c-3.915-.778-24.078-14.011-33.67-20.53-3.783.645-23.298-12.43-32.583-19.048l15.569-11.414c2.768-2.03 8.369-3.096 10.823-3.376z" fill="#D3CFE5"/><path d="M307.731 415.938l32.331-5.454 15.192 25.32c.909 6.752-1.324 21.658-17.529 27.267-16.204 5.61-19.476-2.337-19.087-7.011-8.725-12.154-10.907-31.812-10.907-40.122zm-116.327-52l20.417-15.762 19.922 11.943c3.132 4.349 7.105 15.521-2.063 25.417-9.167 9.896-14.382 5.593-15.843 2.205-10.558-5.202-19.354-18.036-22.433-23.803zM0 22.509l16.75-6.622 21.424 51.029 10.907 6.232 22.204 66.61 15.192 10.518 18.308 54.535c-18.075 17.139-44.667 20.905-55.704 20.645l-18.697-52.587 4.285-17.14L10.907 88.34l4.285-10.517L0 22.509z" fill="#403366"/><rect width="14.802" height="45.595" rx="5.879" transform="scale(-1 1) rotate(17.669 -313.791 -154.562)" fill="#332E4D"/><path d="M77.906 157.285l17.53 50.25M68.947 161.96l16.75 49.081m-25.32-45.965l15.971 48.692m-25.32-46.355L67 217.663m-25.71-47.134l16.75 49.861m12.076-79.855c-4.674 3.766-17.84 11.608-33.11 12.855m10.127-79.075C41.68 78.34 27.267 86.312 13.243 86m23.762-17.919c-2.726 2.467-10.517 7.48-19.866 7.79m32.332 60.768L35.447 93.012 25.32 96.518l14.024 44.017 10.128-3.895z" stroke="#5F5980" stroke-width="1.47"/><circle r="35.058" transform="matrix(-1 0 0 1 316.691 188.839)" fill="#B2ADCC"/><circle r="21.035" transform="matrix(-1 0 0 1 316.69 188.84)" fill="#332E4D"/><circle r="14.023" transform="matrix(-1 0 0 1 316.691 188.84)" fill="#201C33"/><circle r="63.583" transform="matrix(-1 0 0 1 319.417 188.451)" stroke="#E6004C" stroke-width="2.939"/><circle r="48.78" transform="matrix(-1 0 0 1 319.417 188.449)" stroke="#E6004C" stroke-width="2.939"/><rect width="60.767" height="10.128" rx="5.064" transform="matrix(-1 0 0 1 216.81 113.117)" fill="#484266"/><rect width="148.802" height="18.698" rx="9.349" transform="matrix(-1 0 0 1 269.007 123.246)" fill="#D3CFE5"/><path d="M203.222 31.317c50.25 11.666 46.484 65.571 40.511 85.697H131.548s-6.304-34.71 3.505-52.977c13.971-26.015 39.404-39.399 68.169-32.72z" fill="#D3CFE5"/><rect x="155.034" y="80.398" width="63.105" height="10.907" rx="1.47" fill="url(#paint0_linear)"/><rect x="150.589" y="78.063" width="71.674" height="2.337" rx="1.169" fill="#332E4D"/><path d="M208.814 33.146l16.695-3.176c-13.727 14.246-24.022 31.577-30.05 48.091H172.18c.742-5.626 1.855-14.155 2.782-18.057l-11.129 2.178c3.431-22.05 12.984-42.647 26.618-61.067l-.279-.181h39.881c-7.698 9.073-14.839 16.423-21.239 32.212z" fill="#403366"/><path d="M132.839 17.62a4.153 4.153 0 0 1 4.698 2.498l18.716 45.927-18.502-4.725-8.125-38.783a4.153 4.153 0 0 1 3.213-4.917zm117.036 9.686a4.152 4.152 0 0 0-4.9 2.072l-22.713 44.088L241.11 70.4l11.53-37.91a4.153 4.153 0 0 0-2.765-5.183z" fill="#D3CFE5"/><path d="M136.565 326.586c10.907-11.167 39.577-29.761 67-14.802 5.194 2.726 15.971 11.374 17.529 24.151l-8.96 12.465m-75.569-21.814l-26.488-22.983m26.488 22.983l-7.012-33.5" stroke="#958FB2" stroke-width="1.47"/><path d="M125.039 140.777h137.895s-15.971 17.529-28.825 28.436c-12.855 10.907-22.593 21.035-45.576 23.762-17.529 0-28.436-12.076-40.511-23.762-12.076-11.686-22.983-28.436-22.983-28.436z" fill="#D3CFE5"/><path d="M188.533 192.975v-52.198m0 52.198c22.983-2.727 32.721-12.855 45.576-23.762 12.854-10.907 28.825-28.436 28.825-28.436h-74.401m0 52.198c-17.529 0-28.436-12.076-40.511-23.762-12.076-11.686-22.983-28.436-22.983-28.436h63.494" stroke="#797399" stroke-width="1.47"/><defs><linearGradient id="paint0_linear" x1="186.586" y1="80.398" x2="186.586" y2="91.305" gradientUnits="userSpaceOnUse"><stop stop-color="#E6004C"/><stop offset="1" stop-color="#B5043F"/></linearGradient></defs></svg>
